X:1
T:Title
%%score { ( 1 4 ) | ( 2 3 ) }
L:1/8
M:6/8
K:Eb
V:1 treble nm="Grand Piano"
V:4 treble 
V:2 bass 
V:3 bass 
V:1
 z3 z2[Q:1/4=100] E | G2 G GFE | [GB]2 [Ac] [GB]2 [GB] | c2 c edc |[M:5/8] [GB]-[GB]- [GB]3 | %5
[M:1/8] [GB] |[M:3/4] [FA]2 [FA][FA] [EG][DF] | G3 G2 G | F2 B d2 c | [B,B]6 |[M:1/8] [B,AB] | %11
[M:3/4] [Ge]2 [Ge] [Gd]2 [Gc] | [GB]3 [EG]2 [EB] | [Ec]2 [Ec] [EB]2 [EG] | %14
[M:5/8] [DF]-[DF]- [DF]3 |[M:1/8] [AB] |[M:3/4] [Ge]2 [Ge] [Gd]2 [Gc] |[M:7/8] [GB]3 [Ge]3 [EG] | %18
[M:3/4] [EB]2 [EB]B z [A,DF] |[M:5/8] [G,E]-[G,E]- [G,E]3 |] %20
V:2
 z3 z2 [E,G,] | z3 .B,3 | [E,E]3 [E,E]2 [E,E] | [A,EA]2 [A,EA] [A,CA]2 [A,EA] | %4
[M:5/8][K:bass] [E,E]-[E,E]- [E,E]3 |[M:1/8] [E,B,] |[M:3/4] [B,,B,]2 [B,,B,] [B,,B,]2 [B,,B,] | %7
 [E,B,E]3 [E,B,E]2 [E,B,E] | [F,B,D]2 [F,B,D] [F,B,F]2 [F,=A,E] | z2 z A3 |[M:1/8] B,, | %11
[M:3/4] [E,B,]2 [E,B,] [E,E]2 [E,E] | [E,E]3 [E,B,]2 [E,G,] | [A,,A,]2 [A,,A,] [E,G,]2 [E,B,] | %14
[M:5/8] [B,,B,]-[B,,B,]- [B,,B,]3 |[M:1/8] [B,,B,] |[M:3/4] [E,B,]2 [E,B,] [E,E]2 [E,E] | %17
[M:7/8] [E,E]3 [E,B,]3 [E,B,] |[M:3/4] [B,,G,]2 .[B,,G,]2 AB,, |[M:5/8] E,-E,- E,3 |] %20
V:3
 x6 | [E,B,E]2 [E,B,E] [E,E]-[E,A,E][E,G,] | x6 | x6 |[M:5/8][K:bass] x5 |[M:1/8] x |[M:3/4] x6 | %7
 x6 | x6 | B,,6 |[M:1/8] x |[M:3/4] x6 | x6 | x6 |[M:5/8] x5 |[M:1/8] x |[M:3/4] x6 |[M:7/8] x7 | %18
[M:3/4] z2 z .[B,,F,]3 |[M:5/8] x5 |] %20
V:4
 x6 | x6 | x6 | x6 |[M:5/8] x5 |[M:1/8] x |[M:3/4] x6 | x6 | x6 | D4 z2 |[M:1/8] x |[M:3/4] x6 | %12
 x6 | x6 |[M:5/8] x5 |[M:1/8] x |[M:3/4] x6 |[M:7/8] x7 |[M:3/4] z2 z .D3 |[M:5/8] x5 |] %20

